assets/azurenetworkfunctionmanagerfunctions/original.svg

<svg height="18" viewBox="0 0 18 18" width="18" xmlns="http://www.w3.org/2000/svg" xmlns:xlink="http://www.w3.org/1999/xlink"><linearGradient id="a" gradientUnits="userSpaceOnUse" x1="6.574" x2="6.574" y1="1.643" y2="13.015"><stop offset="0" stop-color="#9d79eb"/><stop offset="1" stop-color="#7548d6"/></linearGradient><linearGradient id="b"><stop offset="0" stop-color="#3cd4c2"/><stop offset="1" stop-color="#37c2b1"/></linearGradient><linearGradient id="c" gradientUnits="userSpaceOnUse" x1="12.173" x2="12.151" xlink:href="#b" y1="13.886" y2="17.014"/><linearGradient id="d" gradientUnits="userSpaceOnUse" x1="12.173" x2="12.151" xlink:href="#b" y1="10.27" y2="13.399"/><path d="m4.351 2.08a7.4 7.4 0 0 0 -1.236 2.477h-1.525a5.75 5.75 0 0 1 2.761-2.477m-3.115 7.287h1.77a7.7 7.7 0 0 1 -.3-2.021 10 10 0 0 1 .247-2.18h-1.66a5.66 5.66 0 0 0 -.057 4.201m3.511 3.389a8.6 8.6 0 0 1 -1.547-2.778h-1.693a5.74 5.74 0 0 0 3.24 2.778m-.9-2.778a6.16 6.16 0 0 0 2.138 3.053q.083.007.166.008c0-.017-.01-.032-.01-.05v-2.309a.8.8 0 0 1 .15-.441v-.261zm-.529-2.632a7.2 7.2 0 0 0 .329 2.021h2.653v-4.2h-2.726a9.3 9.3 0 0 0 -.256 2.179m.425-2.789h2.557v-2.914a6 6 0 0 0 -.55.053 4.7 4.7 0 0 0 -2.007 2.861m3.533-2.879a6 6 0 0 0 -.371-.031v2.909h2.416a4.6 4.6 0 0 0 -2.045-2.878m-.371 7.689h2.512a7.3 7.3 0 0 0 .33-2.021 9.3 9.3 0 0 0 -.257-2.18h-2.585zm1.77-7.331a7.3 7.3 0 0 1 1.275 2.521h1.608a5.75 5.75 0 0 0 -2.883-2.521m1.433 3.13a10 10 0 0 1 .247 2.178 7.7 7.7 0 0 1 -.3 2.023h1.854a5.66 5.66 0 0 0 -.057-4.2z" fill="url(#a)"/><rect fill="url(#c)" height="3.056" rx=".374" width="11.177" x="6.573" y="13.922"/><rect fill="#fff" height=".835" rx=".187" width=".835" x="16.014" y="14.457"/><rect fill="#fff" height=".835" opacity=".6" rx=".187" width=".835" x="16.014" y="15.608"/><path d="m6.154 13.039c-.055 0-.111 0-.166-.008a6.16 6.16 0 0 1 -2.138-3.053h2.444v.261a.79.79 0 0 1 .653-.362h5.4a6.16 6.16 0 0 0 -.045-5.2l-.058-.122a6.33 6.33 0 0 0 -4.814-3.468 1.3 1.3 0 0 0 -.295-.036 6 6 0 0 0 -1.206.003 1.7 1.7 0 0 0 -.344.053 6.34 6.34 0 0 0 -4.675 3.45h-.01v.013a6.3 6.3 0 0 0 4.884 9.044.2.2 0 0 0 .048.007 6 6 0 0 0 .713.048.8.8 0 0 1 -.391-.63m5.758-3.672h-1.854a7.7 7.7 0 0 0 .3-2.023 10 10 0 0 0 -.247-2.178h1.747a5.66 5.66 0 0 1 .054 4.201m-.354-4.81h-1.608a7.3 7.3 0 0 0 -1.275-2.521 5.75 5.75 0 0 1 2.883 2.521m-4.653-2.91q.186.01.371.031a4.6 4.6 0 0 1 2.045 2.878h-2.416zm0 3.519h2.585a9.3 9.3 0 0 1 .257 2.18 7.3 7.3 0 0 1 -.33 2.021h-2.512zm-.605 4.201h-2.653a7.2 7.2 0 0 1 -.329-2.021 9.3 9.3 0 0 1 .256-2.18h2.726zm-.554-7.667q.271-.04.55-.053v2.91h-2.553a4.7 4.7 0 0 1 2.003-2.857m-1.4.384a7.4 7.4 0 0 0 -1.231 2.473h-1.525a5.75 5.75 0 0 1 2.761-2.477zm-3.053 3.082h1.663a10 10 0 0 0 -.247 2.18 7.7 7.7 0 0 0 .3 2.021h-1.773a5.66 5.66 0 0 1 .057-4.201m.214 4.812h1.693a8.6 8.6 0 0 0 1.551 2.778 5.74 5.74 0 0 1 -3.244-2.778" fill="#b796f9"/><rect fill="url(#d)" height="3.056" rx=".374" width="11.177" x="6.573" y="10.307"/><g fill="#fff"><rect height=".835" rx=".187" width=".835" x="16.014" y="10.841"/><rect height=".835" opacity=".6" rx=".187" width=".835" x="16.014" y="11.993"/></g></svg>

<svg xmlns="http://www.w3.org/2000/svg" xmlns:xlink="http://www.w3.org/1999/xlink" width="18" height="18" viewBox="0 0 18 18"><linearGradient id="b" x1="6.574" x2="6.574" y1="1.643" y2="13.015" gradientUnits="userSpaceOnUse"><stop offset="0" stop-color="#9d79eb"/><stop offset="1" stop-color="#7548d6"/></linearGradient><linearGradient id="a"><stop offset="0" stop-color="#3cd4c2"/><stop offset="1" stop-color="#37c2b1"/></linearGradient><linearGradient xlink:href="#a" id="d" x1="12.173" x2="12.151" y1="13.886" y2="17.014" gradientUnits="userSpaceOnUse"/><linearGradient xlink:href="#a" id="e" x1="12.173" x2="12.151" y1="10.27" y2="13.399" gradientUnits="userSpaceOnUse"/><path fill="url(#b)" d="M4.351 2.08a7.4 7.4 0 0 0-1.236 2.477H1.59A5.75 5.75 0 0 1 4.351 2.08M1.236 9.367h1.77a7.7 7.7 0 0 1-.3-2.021 10 10 0 0 1 .247-2.18h-1.66a5.66 5.66 0 0 0-.057 4.201m3.511 3.389A8.6 8.6 0 0 1 3.2 9.978H1.507a5.74 5.74 0 0 0 3.24 2.778m-.9-2.778a6.16 6.16 0 0 0 2.138 3.053q.083.007.166.008c0-.017-.01-.032-.01-.05V10.68a.8.8 0 0 1 .15-.441v-.261zm-.529-2.632a7.2 7.2 0 0 0 .329 2.021H6.3v-4.2H3.574a9.3 9.3 0 0 0-.256 2.179m.425-2.789H6.3V1.643a6 6 0 0 0-.55.053 4.7 4.7 0 0 0-2.007 2.861m3.533-2.879a6 6 0 0 0-.371-.031v2.909h2.416a4.6 4.6 0 0 0-2.045-2.878m-.371 7.689h2.512a7.3 7.3 0 0 0 .33-2.021 9.3 9.3 0 0 0-.257-2.18H6.905zm1.77-7.331A7.3 7.3 0 0 1 9.95 4.557h1.608a5.75 5.75 0 0 0-2.883-2.521m1.433 3.13a10 10 0 0 1 .247 2.178 7.7 7.7 0 0 1-.3 2.023h1.854a5.66 5.66 0 0 0-.057-4.2z"/><rect width="11.177" height="3.056" x="6.573" y="13.922" fill="url(#d)" rx=".374"/><rect width=".835" height=".835" x="16.014" y="14.457" fill="#fff" rx=".187"/><rect width=".835" height=".835" x="16.014" y="15.608" fill="#fff" opacity=".6" rx=".187"/><path fill="#b796f9" d="M6.154 13.039c-.055 0-.111 0-.166-.008A6.16 6.16 0 0 1 3.85 9.978h2.444v.261a.79.79 0 0 1 .653-.362h5.4a6.16 6.16 0 0 0-.045-5.2l-.058-.122A6.33 6.33 0 0 0 7.43 1.087a1.3 1.3 0 0 0-.295-.036 6 6 0 0 0-1.206.003 1.7 1.7 0 0 0-.344.053A6.34 6.34 0 0 0 .91 4.557H.9v.013a6.3 6.3 0 0 0 4.884 9.044.2.2 0 0 0 .048.007 6 6 0 0 0 .713.048.8.8 0 0 1-.391-.63m5.758-3.672h-1.854a7.7 7.7 0 0 0 .3-2.023 10 10 0 0 0-.247-2.178h1.747a5.66 5.66 0 0 1 .054 4.201m-.354-4.81H9.95a7.3 7.3 0 0 0-1.275-2.521 5.75 5.75 0 0 1 2.883 2.521m-4.653-2.91q.186.01.371.031a4.6 4.6 0 0 1 2.045 2.878H6.905zm0 3.519H9.49a9.3 9.3 0 0 1 .257 2.18 7.3 7.3 0 0 1-.33 2.021H6.905zM6.3 9.367H3.647a7.2 7.2 0 0 1-.329-2.021 9.3 9.3 0 0 1 .256-2.18H6.3zM5.746 1.7q.271-.04.55-.053v2.91H3.743A4.7 4.7 0 0 1 5.746 1.7m-1.4.384a7.4 7.4 0 0 0-1.231 2.473H1.59A5.75 5.75 0 0 1 4.351 2.08zM1.293 5.166h1.663a10 10 0 0 0-.247 2.18 7.7 7.7 0 0 0 .3 2.021H1.236a5.66 5.66 0 0 1 .057-4.201m.214 4.812H3.2a8.6 8.6 0 0 0 1.551 2.778 5.74 5.74 0 0 1-3.244-2.778"/><rect width="11.177" height="3.056" x="6.573" y="10.307" fill="url(#e)" rx=".374"/><g fill="#fff"><rect width=".835" height=".835" x="16.014" y="10.841" rx=".187"/><rect width=".835" height=".835" x="16.014" y="11.993" opacity=".6" rx=".187"/></g></svg>
